X:1
T: This is no my ain Hoose
C:
R:Strathspey
Q: 128
K:D
M:4/4
L:1/16
|:G2|F2A2 D2a2 f4 e3d|Bcd2 A3F B2E2 E3G|F2A2 D2a2 f4 e3d|Bcd2 A3F A2D2 D2G2|
F2A2 D2a2 f4 e3d|Bcd2 A3F B2E2 E3G|F2A2 D2a2 f4 e3d|Bcd2 A3F A2D2 D2G2|
FGA2 D3A FGA2 B3A|FGA2 D3f e2E2 E3G|FGA2 D3A FGA2 B3A|Bcd2 cde2 d2D2 D3G|
FGA2 D3A FGA2 B3A|FGA2 D3f e2E2 E2f3/2g1/2|a3f g3e f3d e3c|d3B A3F A2D2 D2:|
